;FLAVOR:Marlin
;TIME:2876
;Filament used: 2.06056m
;Layer height: 0.2
;MINX:84.5
;MINY:87.5
;MINZ:0.2
;MAXX:150.5
;MAXY:117.5
;MAXZ:30
;Generated with Cura_SteamEngine 4.6.1
M140 S60
M105
M190 S60
M104 S200
M105
M109 S200
M82 ;absolute extrusion mode
; Ender 3 Custom Start G-code
G92 E0 ; Reset Extruder
G28 ; Home all axes
G1 Z2.0 F3000 ; Move Z Axis up little to prevent scratching of Heat Bed
G1 X0.1 Y20 Z0.3 F5000.0 ; Move to start position
G1 X0.1 Y200.0 Z0.3 F1500.0 E15 ; Draw the first line
G1 X0.4 Y200.0 Z0.3 F5000.0 ; Move to side a little
G1 X0.4 Y20 Z0.3 F1500.0 E30 ; Draw the second line
G92 E0 ; Reset Extruder
G1 Z2.0 F3000 ; Move Z Axis up little to prevent scratching of Heat Bed
G1 X5 Y20 Z0.3 F5000.0 ; Move over to prevent blob squish
G92 E0
G92 E0
G1 F2700 E-5
;LAYER_COUNT:150
;LAYER:0
M107
G0 F6000 X139.637 Y88.311 Z0.2
;TYPE:SKIRT
G1 F2700 E0
G1 F1200 X140.539 Y88.364 E0.03005
G1 X141.432 Y88.496 E0.06008
G1 X142.31 Y88.707 E0.09011
G1 X143.166 Y88.995 E0.12015
G1 X143.993 Y89.357 E0.15018
G1 X144.785 Y89.792 E0.18023
G1 X145.536 Y90.294 E0.21027
G1 X146.239 Y90.861 E0.24031
G1 X146.889 Y91.488 E0.27035
G1 X147.481 Y92.17 E0.30039
G1 X148.011 Y92.901 E0.33042
G1 X148.473 Y93.677 E0.36046
G1 X148.866 Y94.49 E0.39049
G1 X149.184 Y95.335 E0.42052
G1 X149.427 Y96.205 E0.45056
G1 X149.592 Y97.093 E0.4806
G1 X149.687 Y98.223 E0.51832
G1 X149.7 Y98.83 E0.53851
G1 X149.699 Y105.89 E0.77333
G1 X149.69 Y106.617 E0.79751
G1 X149.639 Y107.519 E0.82756
G1 X149.508 Y108.413 E0.85761
G1 X149.299 Y109.291 E0.88763
G1 X149.013 Y110.148 E0.91768
G1 X148.652 Y110.976 E0.94772
G1 X148.22 Y111.768 E0.97773
G1 X147.719 Y112.52 E1.00778
G1 X147.153 Y113.224 E1.03783
G1 X146.528 Y113.875 E1.06784
G1 X145.847 Y114.469 E1.0979
G1 X145.116 Y115 E1.12795
G1 X144.342 Y115.464 E1.15797
G1 X143.529 Y115.858 E1.18801
G1 X142.685 Y116.178 E1.21804
G1 X141.815 Y116.423 E1.2481
G1 X140.928 Y116.589 E1.27811
G1 X139.777 Y116.687 E1.31653
G1 X139.17 Y116.7 E1.33673
G1 X96.075 Y116.699 E2.77007
G1 X95.377 Y116.69 E2.79329
G1 X94.476 Y116.639 E2.8233
G1 X93.582 Y116.507 E2.85336
G1 X92.704 Y116.298 E2.88338
G1 X91.847 Y116.011 E2.91344
G1 X91.02 Y115.65 E2.94345
G1 X90.227 Y115.217 E2.9735
G1 X89.476 Y114.716 E3.00353
G1 X88.772 Y114.15 E3.03357
G1 X88.121 Y113.524 E3.06361
G1 X87.528 Y112.843 E3.09365
G1 X86.998 Y112.112 E3.12368
G1 X86.534 Y111.337 E3.15372
G1 X86.14 Y110.524 E3.18377
G1 X85.82 Y109.68 E3.21379
G1 X85.576 Y108.81 E3.24384
G1 X85.41 Y107.922 E3.27389
G1 X85.313 Y106.767 E3.31244
G1 X85.3 Y106.158 E3.3327
G1 X85.301 Y99.036 E3.56958
G1 X85.31 Y98.371 E3.5917
G1 X85.362 Y97.469 E3.62175
G1 X85.494 Y96.576 E3.65177
G1 X85.704 Y95.698 E3.6818
G1 X85.991 Y94.841 E3.71186
G1 X86.353 Y94.014 E3.74189
G1 X86.786 Y93.222 E3.77191
G1 X87.288 Y92.471 E3.80195
G1 X87.855 Y91.767 E3.83202
G1 X88.481 Y91.117 E3.86203
G1 X89.162 Y90.524 E3.89207
G1 X89.894 Y89.994 E3.92212
G1 X90.669 Y89.531 E3.95215
G1 X91.482 Y89.138 E3.98219
G1 X92.327 Y88.818 E4.01224
G1 X93.196 Y88.575 E4.04225
G1 X94.084 Y88.409 E4.0723
G1 X95.223 Y88.313 E4.11031
G1 X95.83 Y88.3 E4.13051
G1 X138.939 Y88.301 E5.56432
G1 X139.637 Y88.311 E5.58754
G0 F6000 X139.643 Y87.911
G1 F1200 X140.562 Y87.964 E5.61815
G1 X141.473 Y88.097 E5.64877
G1 X142.369 Y88.308 E5.67939
G1 X143.243 Y88.596 E5.71
G1 X144.09 Y88.959 E5.74065
G1 X144.901 Y89.394 E5.77126
G1 X145.671 Y89.898 E5.80187
G1 X146.395 Y90.467 E5.83249
G1 X147.067 Y91.097 E5.86313
G1 X147.682 Y91.782 E5.89375
G1 X148.235 Y92.518 E5.92437
G1 X148.722 Y93.299 E5.95498
G1 X149.139 Y94.12 E5.98561
G1 X149.484 Y94.974 E6.01624
G1 X149.753 Y95.854 E6.04685
G1 X149.945 Y96.755 E6.07749
G1 X150.058 Y97.668 E6.10808
G1 X150.087 Y98.212 E6.1262
G1 X150.1 Y98.83 E6.14676
G1 X150.099 Y105.895 E6.38175
G1 X150.09 Y106.622 E6.40593
G1 X150.039 Y107.541 E6.43654
G1 X149.908 Y108.453 E6.46719
G1 X149.698 Y109.349 E6.49779
G1 X149.412 Y110.224 E6.52841
G1 X149.051 Y111.071 E6.55904
G1 X148.617 Y111.883 E6.58966
G1 X148.115 Y112.655 E6.62029
G1 X147.547 Y113.38 E6.65092
G1 X146.919 Y114.053 E6.68154
G1 X146.235 Y114.669 E6.71215
G1 X145.5 Y115.223 E6.74276
G1 X144.72 Y115.712 E6.77338
G1 X143.9 Y116.131 E6.80401
G1 X143.047 Y116.477 E6.83463
G1 X142.167 Y116.748 E6.86525
G1 X141.267 Y116.941 E6.89587
G1 X140.353 Y117.056 E6.92651
G1 X139.788 Y117.087 E6.94533
G1 X139.17 Y117.1 E6.96589
G1 X96.07 Y117.099 E8.3994
G1 X95.372 Y117.09 E8.42262
G1 X94.453 Y117.038 E8.45323
G1 X93.542 Y116.907 E8.48384
G1 X92.646 Y116.697 E8.51445
G1 X91.771 Y116.41 E8.54508
G1 X90.924 Y116.048 E8.57571
G1 X90.112 Y115.614 E8.60634
G1 X89.341 Y115.112 E8.63694
G1 X88.616 Y114.544 E8.66757
G1 X87.943 Y113.915 E8.69821
G1 X87.328 Y113.231 E8.7288
G1 X86.774 Y112.496 E8.75942
G1 X86.286 Y111.715 E8.79005
G1 X85.867 Y110.895 E8.82067
G1 X85.521 Y110.042 E8.85129
G1 X85.251 Y109.162 E8.8819
G1 X85.058 Y108.261 E8.91255
G1 X84.944 Y107.348 E8.94315
G1 X84.913 Y106.777 E8.96217
G1 X84.9 Y106.158 E8.98277
G1 X84.901 Y99.031 E9.21981
G1 X84.91 Y98.366 E9.24193
G1 X84.962 Y97.446 E9.27258
G1 X85.094 Y96.535 E9.3032
G1 X85.305 Y95.639 E9.33381
G1 X85.592 Y94.764 E9.36444
G1 X85.955 Y93.918 E9.39506
G1 X86.389 Y93.106 E9.42568
G1 X86.892 Y92.335 E9.4563
G1 X87.461 Y91.611 E9.48693
G1 X88.089 Y90.939 E9.51752
G1 X88.774 Y90.323 E9.54816
G1 X89.51 Y89.77 E9.57878
G1 X90.291 Y89.282 E9.60941
G1 X91.111 Y88.864 E9.64002
G1 X91.965 Y88.519 E9.67066
G1 X92.845 Y88.249 E9.70127
G1 X93.745 Y88.057 E9.73188
G1 X94.659 Y87.943 E9.76251
G1 X95.212 Y87.913 E9.78093
G1 X95.83 Y87.9 E9.80149
G1 X138.945 Y87.901 E11.2355
G1 X139.643 Y87.911 E11.25872
G0 F6000 X139.649 Y87.511
G1 F1200 X140.585 Y87.565 E11.28991
G1 X141.513 Y87.697 E11.32108
G1 X142.427 Y87.909 E11.35229
G1 X143.319 Y88.198 E11.38347
G1 X144.184 Y88.561 E11.41468
G1 X145.014 Y88.997 E11.44586
G1 X145.805 Y89.502 E11.47707
G1 X146.549 Y90.073 E11.50826
G1 X147.242 Y90.705 E11.53946
G1 X147.879 Y91.393 E11.57064
G1 X148.454 Y92.134 E11.60184
G1 X148.965 Y92.92 E11.63302
G1 X149.407 Y93.748 E11.66424
G1 X149.776 Y94.61 E11.69543
G1 X150.071 Y95.5 E11.72661
G1 X150.289 Y96.412 E11.7578
G1 X150.429 Y97.34 E11.78901
G1 X150.487 Y98.201 E11.81772
G1 X150.5 Y98.83 E11.83864
G1 X150.499 Y105.9 E12.07379
G1 X150.49 Y106.627 E12.09797
G1 X150.439 Y107.564 E12.12918
G1 X150.307 Y108.492 E12.16036
G1 X150.098 Y109.406 E12.19154
G1 X149.811 Y110.299 E12.22274
G1 X149.449 Y111.165 E12.25396
G1 X149.015 Y111.996 E12.28514
G1 X148.511 Y112.787 E12.31634
G1 X147.942 Y113.532 E12.34752
G1 X147.311 Y114.227 E12.37874
G1 X146.624 Y114.865 E12.40992
G1 X145.885 Y115.442 E12.4411
G1 X145.099 Y115.954 E12.4723
G1 X144.273 Y116.397 E12.50348
G1 X143.411 Y116.769 E12.5347
G1 X142.522 Y117.065 E12.56587
G1 X141.61 Y117.285 E12.59707
G1 X140.683 Y117.426 E12.62826
G1 X139.799 Y117.487 E12.65773
G1 X139.17 Y117.5 E12.67866
G1 X96.065 Y117.499 E14.11233
G1 X95.367 Y117.49 E14.13555
G1 X94.431 Y117.438 E14.16673
G1 X93.502 Y117.306 E14.19794
G1 X92.588 Y117.096 E14.22913
G1 X91.695 Y116.809 E14.26033
G1 X90.83 Y116.446 E14.29153
G1 X89.999 Y116.012 E14.32271
G1 X89.208 Y115.508 E14.35391
G1 X88.463 Y114.938 E14.38511
G1 X87.769 Y114.307 E14.4163
G1 X87.132 Y113.62 E14.44746
G1 X86.555 Y112.88 E14.47867
G1 X86.043 Y112.094 E14.50987
G1 X85.6 Y111.267 E14.54108
G1 X85.229 Y110.406 E14.57226
G1 X84.933 Y109.516 E14.60346
G1 X84.714 Y108.604 E14.63465
G1 X84.573 Y107.677 E14.66584
G1 X84.513 Y106.788 E14.69547
G1 X84.5 Y106.158 E14.71643
G1 X84.501 Y99.025 E14.95368
G1 X84.51 Y98.36 E14.9758
G1 X84.563 Y97.424 E15.00698
G1 X84.695 Y96.495 E15.03819
G1 X84.906 Y95.581 E15.06939
G1 X85.194 Y94.689 E15.10056
G1 X85.557 Y93.824 E15.13176
G1 X85.992 Y92.993 E15.16296
G1 X86.496 Y92.203 E15.19413
G1 X87.066 Y91.458 E15.22533
G1 X87.698 Y90.764 E15.25655
G1 X88.386 Y90.127 E15.28773
G1 X89.126 Y89.551 E15.31892
G1 X89.912 Y89.039 E15.35012
G1 X90.739 Y88.597 E15.38131
G1 X91.601 Y88.227 E15.41251
G1 X92.491 Y87.931 E15.44371
G1 X93.403 Y87.713 E15.47489
G1 X94.33 Y87.572 E15.50608
G1 X95.201 Y87.513 E15.53512
G1 X95.83 Y87.5 E15.55604
G1 X138.951 Y87.501 E16.99025
G1 X139.649 Y87.511 E17.01347
G1 F2700 E12.01347
;MESH:exterior.stl
G0 F6000 X139.08 Y97.835
G0 X139.08 Y98.92
G0 X96.282 Y99.282
G0 X96.1 Y105.9
;TYPE:WALL-INNER
G1 F2700 E17.01347
G1 F1200 X96.1 Y99.1 E17.23964
G1 X138.9 Y99.1 E18.66317
G1 X138.9 Y105.9 E18.88934
G1 X96.1 Y105.9 E20.31287
G0 F6000 X95.7 Y106.3
;TYPE:WALL-OUTER
G1 F1200 X95.7 Y98.7 E20.56565
G1 X139.3 Y98.7 E22.01579
G1 X139.3 Y106.3 E22.26857
G1 X95.7 Y106.3 E23.71871
G0 F6000 X95.97 Y106.03
G0 X96.21 Y105.51
G0 X96.49 Y105.51
;TYPE:SKIN
G1 F1200 X96.49 Y99.49 E23.91894
G1 X138.51 Y99.49 E25.31653
G1 X138.51 Y105.51 E25.51676
G1 X96.49 Y105.51 E26.91435
G0 F6000 X96.863 Y105.349
G1 F1200 X96.65 Y105.135 E26.92439
G0 F6000 X96.65 Y104.569
G1 F1200 X97.429 Y105.349 E26.96105
G0 F6000 X97.995 Y105.349
G1 F1200 X96.65 Y104.004 E27.02432
G0 F6000 X96.65 Y103.438
G1 F1200 X98.56 Y105.349 E27.11418
G0 F6000 X99.126 Y105.349
G1 F1200 X96.65 Y102.872 E27.23067
G0 F6000 X96.65 Y102.307
G1 F1200 X99.692 Y105.349 E27.37376
G0 F6000 X100.257 Y105.349
G1 F1200 X96.65 Y101.741 E27.54344
G0 F6000 X96.65 Y101.175
G1 F1200 X100.823 Y105.349 E27.73975
G0 F6000 X101.389 Y105.349
G1 F1200 X96.65 Y100.609 E27.96268
G0 F6000 X96.65 Y100.044
G1 F1200 X101.954 Y105.349 E28.21219
G0 F6000 X102.52 Y105.349
G1 F1200 X96.821 Y99.649 E28.48028
G0 F6000 X97.386 Y99.649
G1 F1200 X103.086 Y105.349 E28.74839
G0 F6000 X103.651 Y105.349
G1 F1200 X97.952 Y99.649 E29.01647
G0 F6000 X98.518 Y99.649
G1 F1200 X104.217 Y105.349 E29.28456
G0 F6000 X104.783 Y105.349
G1 F1200 X99.084 Y99.649 E29.55265
G0 F6000 X99.649 Y99.649
G1 F1200 X105.349 Y105.349 E29.82076
G0 F6000 X105.914 Y105.349
G1 F1200 X100.215 Y99.649 E30.08885
G0 F6000 X100.781 Y99.649
G1 F1200 X106.48 Y105.349 E30.35693
G0 F6000 X107.046 Y105.349
G1 F1200 X101.346 Y99.649 E30.62504
G0 F6000 X101.912 Y99.649
G1 F1200 X107.611 Y105.349 E30.89313
G0 F6000 X108.177 Y105.349
G1 F1200 X102.478 Y99.649 E31.16122
G0 F6000 X103.043 Y99.649
G1 F1200 X108.743 Y105.349 E31.42933
G0 F6000 X109.308 Y105.349
G1 F1200 X103.609 Y99.649 E31.69741
G0 F6000 X104.175 Y99.649
G1 F1200 X109.874 Y105.349 E31.9655
G0 F6000 X110.44 Y105.349
G1 F1200 X104.74 Y99.649 E32.23361
G0 F6000 X105.306 Y99.649
G1 F1200 X111.005 Y105.349 E32.5017
G0 F6000 X111.571 Y105.349
G1 F1200 X105.872 Y99.649 E32.76979
G0 F6000 X106.437 Y99.649
G1 F1200 X112.137 Y105.349 E33.0379
G0 F6000 X112.702 Y105.349
G1 F1200 X107.003 Y99.649 E33.30598
G0 F6000 X107.569 Y99.649
G1 F1200 X113.268 Y105.349 E33.57407
G0 F6000 X113.834 Y105.349
G1 F1200 X108.135 Y99.649 E33.84216
G0 F6000 X108.7 Y99.649
G1 F1200 X114.399 Y105.349 E34.11024
G0 F6000 X114.965 Y105.349
G1 F1200 X109.266 Y99.649 E34.37833
G0 F6000 X109.832 Y99.649
G1 F1200 X115.531 Y105.349 E34.64642
G0 F6000 X116.097 Y105.349
G1 F1200 X110.397 Y99.649 E34.91453
G0 F6000 X110.963 Y99.649
G1 F1200 X116.662 Y105.349 E35.18262
G0 F6000 X117.228 Y105.349
G1 F1200 X111.529 Y99.649 E35.4507
G0 F6000 X112.094 Y99.649
G1 F1200 X117.794 Y105.349 E35.71881
G0 F6000 X118.359 Y105.349
G1 F1200 X112.66 Y99.649 E35.9869
G0 F6000 X113.226 Y99.649
G1 F1200 X118.925 Y105.349 E36.25499
G0 F6000 X119.491 Y105.349
G1 F1200 X113.791 Y99.649 E36.5231
G0 F6000 X114.357 Y99.649
G1 F1200 X120.056 Y105.349 E36.79119
G0 F6000 X120.622 Y105.349
G1 F1200 X114.923 Y99.649 E37.05927
G0 F6000 X115.488 Y99.649
G1 F1200 X121.188 Y105.349 E37.32738
G0 F6000 X121.753 Y105.349
G1 F1200 X116.054 Y99.649 E37.59547
G0 F6000 X116.62 Y99.649
G1 F1200 X122.319 Y105.349 E37.86356
G0 F6000 X122.885 Y105.349
G1 F1200 X117.185 Y99.649 E38.13167
G0 F6000 X117.751 Y99.649
G1 F1200 X123.45 Y105.349 E38.39975
G0 F6000 X124.016 Y105.349
G1 F1200 X118.317 Y99.649 E38.66784
G0 F6000 X118.883 Y99.649
G1 F1200 X124.582 Y105.349 E38.93593
G0 F6000 X125.148 Y105.349
G1 F1200 X119.448 Y99.649 E39.20404
G0 F6000 X120.014 Y99.649
G1 F1200 X125.713 Y105.349 E39.47213
G0 F6000 X126.279 Y105.349
G1 F1200 X120.58 Y99.649 E39.74021
G0 F6000 X121.145 Y99.649
G1 F1200 X126.845 Y105.349 E40.00832
G0 F6000 X127.41 Y105.349
G1 F1200 X121.711 Y99.649 E40.27641
G0 F6000 X122.277 Y99.649
G1 F1200 X127.976 Y105.349 E40.5445
G0 F6000 X128.542 Y105.349
G1 F1200 X122.842 Y99.649 E40.81261
G0 F6000 X123.408 Y99.649
G1 F1200 X129.107 Y105.349 E41.08069
G0 F6000 X129.673 Y105.349
G1 F1200 X123.974 Y99.649 E41.34878
G0 F6000 X124.539 Y99.649
G1 F1200 X130.239 Y105.349 E41.61689
G0 F6000 X130.804 Y105.349
G1 F1200 X125.105 Y99.649 E41.88498
G0 F6000 X125.671 Y99.649
G1 F1200 X131.37 Y105.349 E42.15307
G0 F6000 X131.936 Y105.349
G1 F1200 X126.236 Y99.649 E42.42118
G0 F6000 X126.802 Y99.649
G1 F1200 X132.501 Y105.349 E42.68926
G0 F6000 X133.067 Y105.349
G1 F1200 X127.368 Y99.649 E42.95735
G0 F6000 X127.934 Y99.649
G1 F1200 X133.633 Y105.349 E43.22544
G0 F6000 X134.198 Y105.349
G1 F1200 X128.499 Y99.649 E43.49352
G0 F6000 X129.065 Y99.649
G1 F1200 X134.764 Y105.349 E43.76161
G0 F6000 X135.33 Y105.349
G1 F1200 X129.631 Y99.649 E44.0297
G0 F6000 X130.196 Y99.649
G1 F1200 X135.896 Y105.349 E44.29781
G0 F6000 X136.461 Y105.349
G1 F1200 X130.762 Y99.649 E44.5659
G0 F6000 X131.328 Y99.649
G1 F1200 X137.027 Y105.349 E44.83398
G0 F6000 X137.593 Y105.349
G1 F1200 X131.893 Y99.649 E45.10209
G0 F6000 X132.459 Y99.649
G1 F1200 X138.158 Y105.349 E45.37018
G0 F6000 X138.349 Y104.974
G1 F1200 X133.025 Y99.649 E45.62063
G0 F6000 X133.59 Y99.649
G1 F1200 X138.349 Y104.408 E45.84448
G0 F6000 X138.349 Y103.842
G1 F1200 X134.156 Y99.649 E46.0417
G0 F6000 X134.722 Y99.649
G1 F1200 X138.349 Y103.277 E46.21233
G0 F6000 X138.349 Y102.711
G1 F1200 X135.287 Y99.649 E46.35636
G0 F6000 X135.853 Y99.649
G1 F1200 X138.349 Y102.145 E46.47376
G0 F6000 X138.349 Y101.58
G1 F1200 X136.419 Y99.649 E46.56457
G0 F6000 X136.984 Y99.649
G1 F1200 X138.349 Y101.014 E46.62877
G0 F6000 X138.349 Y100.448
G1 F1200 X137.55 Y99.649 E46.66635
G0 F6000 X138.116 Y99.649
G1 F1200 X138.349 Y99.883 E46.67734
G0 F6000 X138.7 Y99.883
G1 F2700 E41.67734
;MESH:NONMESH
G0 F300 X138.7 Y99.883 Z0.4
G0 F6000 X138.79 Y99.883
G0 X138.718 Y105.718
G0 X96.1 Y105.9
;TIME_ELAPSED:83.514883
;LAYER:1
M140 S60
M106 S85
;TYPE:WALL-INNER
;MESH:exterior.stl
G1 F2700 E46.67734
G1 F1350 X96.1 Y99.1 E46.90351
G1 X138.9 Y99.1 E48.32704
G1 X138.9 Y105.9 E48.55321
G1 X96.1 Y105.9 E49.97674
G0 F7500 X95.7 Y106.3
;TYPE:WALL-OUTER
G1 F1350 X95.7 Y98.7 E50.22952
G1 X139.3 Y98.7 E51.67966
G1 X139.3 Y106.3 E51.93244
G1 X95.7 Y106.3 E53.38258
G0 F7500 X95.97 Y106.03
G0 X96.21 Y105.51
G0 X96.49 Y105.51
;TYPE:SKIN
G1 F1350 X96.49 Y99.49 E53.58281
G1 X138.51 Y99.49 E54.9804
G1 X138.51 Y105.51 E55.18062
G1 X96.49 Y105.51 E56.57821
G0 F7500 X96.21 Y105.51
G0 X96.21 Y100.208
G0 X96.65 Y100.208
G1 F1350 X97.208 Y99.649 E56.60448
G0 F7500 X97.774 Y99.649
G1 F1350 X96.65 Y100.774 E56.65738
G0 F7500 X96.65 Y101.339
G1 F1350 X98.34 Y99.649 E56.73687
G0 F7500 X98.905 Y99.649
G1 F1350 X96.65 Y101.905 E56.84296
G0 F7500 X96.65 Y102.471
G1 F1350 X99.471 Y99.649 E56.97568
G0 F7500 X100.037 Y99.649
G1 F1350 X96.65 Y103.036 E57.13499
G0 F7500 X96.65 Y103.602
G1 F1350 X100.602 Y99.649 E57.3209
G0 F7500 X101.168 Y99.649
G1 F1350 X96.65 Y104.168 E57.53344
G0 F7500 X96.65 Y104.733
G1 F1350 X101.734 Y99.649 E57.77258
G0 F7500 X102.299 Y99.649
G1 F1350 X96.65 Y105.299 E58.03831
G0 F7500 X97.165 Y105.349
G1 F1350 X102.865 Y99.649 E58.30642
G0 F7500 X103.431 Y99.649
G1 F1350 X97.731 Y105.349 E58.57453
G0 F7500 X98.297 Y105.349
G1 F1350 X103.997 Y99.649 E58.84264
G0 F7500 X104.562 Y99.649
G1 F1350 X98.862 Y105.349 E59.11075
G0 F7500 X99.428 Y105.349
G1 F1350 X105.128 Y99.649 E59.37886
G0 F7500 X105.694 Y99.649
G1 F1350 X99.994 Y105.349 E59.64697
G0 F7500 X100.559 Y105.349
G1 F1350 X106.259 Y99.649 E59.91509
G0 F7500 X106.825 Y99.649
G1 F1350 X101.125 Y105.349 E60.1832
G0 F7500 X101.691 Y105.349
G1 F1350 X107.391 Y99.649 E60.45131
G0 F7500 X107.956 Y99.649
G1 F1350 X102.256 Y105.349 E60.71942
G0 F7500 X102.822 Y105.349
G1 F1350 X108.522 Y99.649 E60.98753
