;FLAVOR:Marlin
;TIME:5282
;Filament used: 4.18329m
;Layer height: 0.2
;MINX:84.5
;MINY:91.167
;MINZ:0.2
;MAXX:150.5
;MAXY:143.167
;MAXZ:45
;Generated with Cura_SteamEngine 4.6.1
M140 S60
M105
M190 S60
M104 S200
M105
M109 S200
M82 ;absolute extrusion mode
; Ender 3 Custom Start G-code
G92 E0 ; Reset Extruder
G28 ; Home all axes
G1 Z2.0 F3000 ; Move Z Axis up little to prevent scratching of Heat Bed
G1 X0.1 Y20 Z0.3 F5000.0 ; Move to start position
G1 X0.1 Y200.0 Z0.3 F1500.0 E15 ; Draw the first line
G1 X0.4 Y200.0 Z0.3 F5000.0 ; Move to side a little
G1 X0.4 Y20 Z0.3 F1500.0 E30 ; Draw the second line
G92 E0 ; Reset Extruder
G1 Z2.0 F3000 ; Move Z Axis up little to prevent scratching of Heat Bed
G1 X5 Y20 Z0.3 F5000.0 ; Move over to prevent blob squish
G92 E0
G92 E0
G1 F2700 E-5
;LAYER_COUNT:225
;LAYER:0
M107
G0 F6000 X139.637 Y91.978 Z0.2
;TYPE:SKIRT
G1 F2700 E0
G1 F1200 X140.539 Y92.031 E0.03005
G1 X141.432 Y92.163 E0.06008
G1 X142.31 Y92.374 E0.09011
G1 X143.166 Y92.662 E0.12015
G1 X143.993 Y93.024 E0.15018
G1 X144.785 Y93.459 E0.18023
G1 X145.536 Y93.961 E0.21027
G1 X146.239 Y94.528 E0.24031
G1 X146.889 Y95.155 E0.27035
G1 X147.481 Y95.837 E0.30039
G1 X148.011 Y96.568 E0.33042
G1 X148.473 Y97.344 E0.36046
G1 X148.866 Y98.157 E0.39049
G1 X149.184 Y99.002 E0.42052
G1 X149.427 Y99.872 E0.45056
G1 X149.592 Y100.76 E0.4806
G1 X149.687 Y101.89 E0.51832
G1 X149.7 Y102.497 E0.53851
G1 X149.699 Y131.557 E1.50505
G1 X149.69 Y132.284 E1.52924
G1 X149.639 Y133.186 E1.55928
G1 X149.508 Y134.08 E1.58934
G1 X149.299 Y134.958 E1.61936
G1 X149.013 Y135.815 E1.6494
G1 X148.652 Y136.643 E1.67945
G1 X148.22 Y137.435 E1.70945
G1 X147.719 Y138.187 E1.73951
G1 X147.153 Y138.891 E1.76955
G1 X146.528 Y139.542 E1.79957
G1 X145.847 Y140.136 E1.82962
G1 X145.116 Y140.667 E1.85967
G1 X144.342 Y141.131 E1.88969
G1 X143.529 Y141.525 E1.91974
G1 X142.685 Y141.845 E1.94976
G1 X141.815 Y142.09 E1.97982
G1 X140.928 Y142.256 E2.00983
G1 X139.777 Y142.354 E2.04826
G1 X139.17 Y142.367 E2.06845
G1 X96.075 Y142.366 E3.50179
G1 X95.377 Y142.357 E3.52501
G1 X94.476 Y142.306 E3.55503
G1 X93.582 Y142.174 E3.58508
G1 X92.704 Y141.965 E3.6151
G1 X91.847 Y141.678 E3.64516
G1 X91.02 Y141.317 E3.67518
G1 X90.227 Y140.884 E3.70523
G1 X89.476 Y140.383 E3.73525
G1 X88.772 Y139.817 E3.7653
G1 X88.121 Y139.191 E3.79534
G1 X87.528 Y138.51 E3.82537
G1 X86.998 Y137.779 E3.8554
G1 X86.534 Y137.004 E3.88544
G1 X86.14 Y136.191 E3.91549
G1 X85.82 Y135.347 E3.94551
G1 X85.576 Y134.477 E3.97557
G1 X85.41 Y133.589 E4.00561
G1 X85.313 Y132.434 E4.04416
G1 X85.3 Y131.825 E4.06442
G1 X85.301 Y102.703 E5.03303
G1 X85.31 Y102.038 E5.05515
G1 X85.362 Y101.136 E5.0852
G1 X85.494 Y100.243 E5.11522
G1 X85.704 Y99.365 E5.14525
G1 X85.991 Y98.508 E5.17531
G1 X86.353 Y97.681 E5.20533
G1 X86.786 Y96.889 E5.23535
G1 X87.288 Y96.138 E5.2654
G1 X87.855 Y95.434 E5.29546
G1 X88.481 Y94.784 E5.32548
G1 X89.162 Y94.191 E5.35551
G1 X89.894 Y93.661 E5.38557
G1 X90.669 Y93.198 E5.4156
G1 X91.482 Y92.805 E5.44563
G1 X92.327 Y92.485 E5.47568
G1 X93.196 Y92.242 E5.5057
G1 X94.084 Y92.076 E5.53574
G1 X95.223 Y91.98 E5.57376
G1 X95.83 Y91.967 E5.59395
G1 X138.939 Y91.968 E7.02776
G1 X139.637 Y91.978 E7.05098
G0 F6000 X139.643 Y91.578
G1 F1200 X140.562 Y91.631 E7.0816
G1 X141.473 Y91.764 E7.11222
G1 X142.369 Y91.975 E7.14284
G1 X143.243 Y92.263 E7.17344
G1 X144.09 Y92.626 E7.20409
G1 X144.901 Y93.061 E7.2347
G1 X145.671 Y93.565 E7.26531
G1 X146.395 Y94.134 E7.29594
G1 X147.067 Y94.764 E7.32658
G1 X147.682 Y95.449 E7.35719
G1 X148.235 Y96.185 E7.38781
G1 X148.722 Y96.966 E7.41843
G1 X149.139 Y97.787 E7.44905
G1 X149.484 Y98.641 E7.47969
G1 X149.753 Y99.521 E7.51029
G1 X149.945 Y100.422 E7.54093
G1 X150.058 Y101.335 E7.57153
G1 X150.087 Y101.879 E7.58965
G1 X150.1 Y102.497 E7.61021
G1 X150.099 Y131.562 E8.57692
G1 X150.09 Y132.289 E8.6011
G1 X150.039 Y133.208 E8.63171
G1 X149.908 Y134.12 E8.66235
G1 X149.698 Y135.016 E8.69296
G1 X149.412 Y135.891 E8.72358
G1 X149.051 Y136.738 E8.7542
G1 X148.617 Y137.55 E8.78483
G1 X148.115 Y138.322 E8.81546
G1 X147.547 Y139.047 E8.84609
G1 X146.919 Y139.72 E8.8767
G1 X146.235 Y140.336 E8.90732
G1 X145.5 Y140.89 E8.93793
G1 X144.72 Y141.379 E8.96855
G1 X143.9 Y141.798 E8.99918
G1 X143.047 Y142.144 E9.0298
G1 X142.167 Y142.415 E9.06042
G1 X141.267 Y142.608 E9.09104
G1 X140.353 Y142.723 E9.12168
G1 X139.788 Y142.754 E9.1405
G1 X139.17 Y142.767 E9.16105
G1 X96.07 Y142.766 E10.59457
G1 X95.372 Y142.757 E10.61778
G1 X94.453 Y142.705 E10.6484
G1 X93.542 Y142.574 E10.67901
G1 X92.646 Y142.364 E10.70962
G1 X91.771 Y142.077 E10.74025
G1 X90.924 Y141.715 E10.77088
G1 X90.112 Y141.281 E10.80151
G1 X89.341 Y140.779 E10.83211
G1 X88.616 Y140.211 E10.86274
G1 X87.943 Y139.582 E10.89338
G1 X87.328 Y138.898 E10.92397
G1 X86.774 Y138.163 E10.95458
G1 X86.286 Y137.382 E10.98521
G1 X85.867 Y136.562 E11.01584
G1 X85.521 Y135.709 E11.04646
G1 X85.251 Y134.829 E11.07707
G1 X85.058 Y133.928 E11.10772
G1 X84.944 Y133.015 E11.13832
G1 X84.913 Y132.444 E11.15734
G1 X84.9 Y131.825 E11.17794
G1 X84.901 Y102.698 E12.1467
G1 X84.91 Y102.033 E12.16882
G1 X84.962 Y101.113 E12.19947
G1 X85.094 Y100.202 E12.23009
G1 X85.305 Y99.306 E12.2607
G1 X85.592 Y98.431 E12.29133
G1 X85.955 Y97.585 E12.32195
G1 X86.389 Y96.773 E12.35257
G1 X86.892 Y96.002 E12.38319
G1 X87.461 Y95.278 E12.41382
G1 X88.089 Y94.606 E12.44441
G1 X88.774 Y93.99 E12.47505
G1 X89.51 Y93.437 E12.50567
G1 X90.291 Y92.949 E12.5363
G1 X91.111 Y92.531 E12.56691
G1 X91.965 Y92.186 E12.59755
G1 X92.845 Y91.916 E12.62816
G1 X93.745 Y91.724 E12.65877
G1 X94.659 Y91.61 E12.68941
G1 X95.212 Y91.58 E12.70783
G1 X95.83 Y91.567 E12.72839
G1 X138.945 Y91.568 E14.1624
G1 X139.643 Y91.578 E14.18561
G0 F6000 X139.649 Y91.178
G1 F1200 X140.585 Y91.232 E14.2168
G1 X141.513 Y91.364 E14.24797
G1 X142.427 Y91.576 E14.27918
G1 X143.319 Y91.865 E14.31037
G1 X144.184 Y92.228 E14.34157
G1 X145.014 Y92.664 E14.37275
G1 X145.805 Y93.169 E14.40396
G1 X146.549 Y93.74 E14.43516
G1 X147.242 Y94.372 E14.46635
G1 X147.879 Y95.06 E14.49754
G1 X148.454 Y95.801 E14.52873
G1 X148.965 Y96.587 E14.55991
G1 X149.407 Y97.415 E14.59113
G1 X149.776 Y98.277 E14.62232
G1 X150.071 Y99.167 E14.6535
G1 X150.289 Y100.079 E14.68469
G1 X150.429 Y101.007 E14.71591
G1 X150.487 Y101.868 E14.74461
G1 X150.5 Y102.497 E14.76553
G1 X150.499 Y131.567 E15.7324
G1 X150.49 Y132.294 E15.75659
G1 X150.439 Y133.231 E15.7878
G1 X150.307 Y134.159 E15.81897
G1 X150.098 Y135.073 E15.85016
G1 X149.811 Y135.966 E15.88136
G1 X149.449 Y136.832 E15.91257
G1 X149.015 Y137.663 E15.94376
G1 X148.511 Y138.454 E15.97495
G1 X147.942 Y139.199 E16.00613
G1 X147.311 Y139.894 E16.03735
G1 X146.624 Y140.532 E16.06854
G1 X145.885 Y141.109 E16.09972
G1 X145.099 Y141.621 E16.13092
G1 X144.273 Y142.064 E16.16209
G1 X143.411 Y142.436 E16.19332
G1 X142.522 Y142.732 E16.22448
G1 X141.61 Y142.952 E16.25569
G1 X140.683 Y143.093 E16.28687
G1 X139.799 Y143.154 E16.31635
G1 X139.17 Y143.167 E16.33727
G1 X96.065 Y143.166 E17.77095
G1 X95.367 Y143.157 E17.79417
G1 X94.431 Y143.105 E17.82535
G1 X93.502 Y142.973 E17.85656
G1 X92.588 Y142.763 E17.88775
G1 X91.695 Y142.476 E17.91894
G1 X90.83 Y142.113 E17.95015
G1 X89.999 Y141.679 E17.98133
G1 X89.208 Y141.175 E18.01252
G1 X88.463 Y140.605 E18.04372
G1 X87.769 Y139.974 E18.07492
G1 X87.132 Y139.287 E18.10608
G1 X86.555 Y138.547 E18.13729
G1 X86.043 Y137.761 E18.16849
G1 X85.6 Y136.934 E18.19969
G1 X85.229 Y136.073 E18.23088
G1 X84.933 Y135.183 E18.26207
G1 X84.714 Y134.271 E18.29327
G1 X84.573 Y133.344 E18.32445
G1 X84.513 Y132.455 E18.35409
G1 X84.5 Y131.825 E18.37505
G1 X84.501 Y102.692 E19.34402
G1 X84.51 Y102.027 E19.36614
G1 X84.563 Y101.091 E19.39732
G1 X84.695 Y100.162 E19.42853
G1 X84.906 Y99.248 E19.45972
G1 X85.194 Y98.356 E19.4909
G1 X85.557 Y97.491 E19.5221
G1 X85.992 Y96.66 E19.5533
G1 X86.496 Y95.87 E19.58447
G1 X87.066 Y95.125 E19.61567
G1 X87.698 Y94.431 E19.64688
G1 X88.386 Y93.794 E19.67807
G1 X89.126 Y93.218 E19.70926
G1 X89.912 Y92.706 E19.74046
G1 X90.739 Y92.264 E19.77165
G1 X91.601 Y91.894 E19.80285
G1 X92.491 Y91.598 E19.83404
G1 X93.403 Y91.38 E19.86523
G1 X94.33 Y91.239 E19.89642
G1 X95.201 Y91.18 E19.92545
G1 X95.83 Y91.167 E19.94638
G1 X138.951 Y91.168 E21.38059
G1 X139.649 Y91.178 E21.40381
G1 F2700 E16.40381
;MESH:interior.stl
G0 F6000 X139.08 Y101.502
G0 X139.08 Y102.587
G0 X96.282 Y102.949
G0 X96.1 Y131.567
;TYPE:WALL-INNER
G1 F2700 E21.40381
G1 F1200 X96.1 Y102.767 E22.3617
G1 X138.9 Y102.767 E23.78523
G1 X138.9 Y131.567 E24.74312
G1 X96.1 Y131.567 E26.16666
G0 F6000 X95.7 Y131.967
;TYPE:WALL-OUTER
G1 F1200 X95.7 Y102.367 E27.15116
G1 X139.3 Y102.367 E28.6013
G1 X139.3 Y131.967 E29.5858
G1 X95.7 Y131.967 E31.03594
G0 F6000 X95.97 Y131.697
G0 X96.21 Y131.177
G0 X96.49 Y131.177
;TYPE:SKIN
G1 F1200 X96.49 Y103.157 E31.96789
G1 X138.51 Y103.157 E33.36548
G1 X138.51 Y131.177 E34.29743
G1 X96.49 Y131.177 E35.69502
G0 F6000 X97.075 Y131.016
G1 F1200 X96.649 Y130.59 E35.71506
G0 F6000 X96.649 Y130.024
G1 F1200 X97.64 Y131.016 E35.7617
G0 F6000 X98.206 Y131.016
G1 F1200 X96.649 Y129.459 E35.83493
G0 F6000 X96.649 Y128.893
G1 F1200 X98.772 Y131.016 E35.93479
G0 F6000 X99.337 Y131.016
G1 F1200 X96.649 Y128.327 E36.06125
G0 F6000 X96.649 Y127.762
G1 F1200 X99.903 Y131.016 E36.21431
G0 F6000 X100.469 Y131.016
G1 F1200 X96.649 Y127.196 E36.39399
G0 F6000 X96.649 Y126.63
G1 F1200 X101.034 Y131.016 E36.60027
G0 F6000 X101.6 Y131.016
G1 F1200 X96.649 Y126.065 E36.83315
G0 F6000 X96.649 Y125.499
G1 F1200 X102.166 Y131.016 E37.09265
G0 F6000 X102.732 Y131.016
G1 F1200 X96.649 Y124.933 E37.37878
G0 F6000 X96.649 Y124.368
G1 F1200 X103.297 Y131.016 E37.69148
G0 F6000 X103.863 Y131.016
G1 F1200 X96.649 Y123.802 E38.03081
G0 F6000 X96.649 Y123.236
G1 F1200 X104.429 Y131.016 E38.39675
G0 F6000 X104.994 Y131.016
G1 F1200 X96.649 Y122.671 E38.78928
G0 F6000 X96.649 Y122.105
G1 F1200 X105.56 Y131.016 E39.20842
G0 F6000 X106.126 Y131.016
G1 F1200 X96.649 Y121.539 E39.65419
G0 F6000 X96.649 Y120.973
G1 F1200 X106.691 Y131.016 E40.12656
G0 F6000 X107.257 Y131.016
G1 F1200 X96.649 Y120.408 E40.62553
G0 F6000 X96.649 Y119.842
G1 F1200 X107.823 Y131.016 E41.15112
G0 F6000 X108.388 Y131.016
G1 F1200 X96.649 Y119.276 E41.70331
G0 F6000 X96.649 Y118.711
G1 F1200 X108.954 Y131.016 E42.2821
G0 F6000 X109.52 Y131.016
G1 F1200 X96.649 Y118.145 E42.88751
G0 F6000 X96.649 Y117.579
G1 F1200 X110.085 Y131.016 E43.51952
G0 F6000 X110.651 Y131.016
G1 F1200 X96.649 Y117.014 E44.17813
G0 F6000 X96.649 Y116.448
G1 F1200 X111.217 Y131.016 E44.86337
G0 F6000 X111.782 Y131.016
G1 F1200 X96.649 Y115.882 E45.5752
G0 F6000 X96.649 Y115.317
G1 F1200 X112.348 Y131.016 E46.31363
G0 F6000 X112.914 Y131.016
G1 F1200 X96.649 Y114.751 E47.07869
G0 F6000 X96.649 Y114.185
G1 F1200 X113.48 Y131.016 E47.87037
G0 F6000 X114.045 Y131.016
G1 F1200 X96.649 Y113.62 E48.68862
G0 F6000 X96.649 Y113.054
G1 F1200 X114.611 Y131.016 E49.5335
G0 F6000 X115.177 Y131.016
G1 F1200 X96.649 Y112.488 E50.405
G0 F6000 X96.649 Y111.922
G1 F1200 X115.742 Y131.016 E51.3031
G0 F6000 X116.308 Y131.016
G1 F1200 X96.649 Y111.357 E52.2278
G0 F6000 X96.649 Y110.791
G1 F1200 X116.874 Y131.016 E53.17912
G0 F6000 X117.439 Y131.016
G1 F1200 X96.649 Y110.225 E54.15704
G0 F6000 X96.649 Y109.66
G1 F1200 X118.005 Y131.016 E55.16156
G0 F6000 X118.571 Y131.016
G1 F1200 X96.649 Y109.094 E56.19271
G0 F6000 X96.649 Y108.528
G1 F1200 X119.136 Y131.016 E57.25045
G0 F6000 X119.702 Y131.016
G1 F1200 X96.649 Y107.963 E58.33479
G0 F6000 X96.649 Y107.397
G1 F1200 X120.268 Y131.016 E59.44576
G0 F6000 X120.833 Y131.016
G1 F1200 X96.649 Y106.831 E60.58332
G0 F6000 X96.649 Y106.266
G1 F1200 X121.399 Y131.016 E61.74749
G0 F6000 X121.965 Y131.016
G1 F1200 X96.649 Y105.7 E62.93827
G0 F6000 X96.649 Y105.134
G1 F1200 X122.53 Y131.016 E64.15566
G0 F6000 X123.096 Y131.016
G1 F1200 X96.649 Y104.569 E65.39965
G0 F6000 X96.649 Y104.003
G1 F1200 X123.662 Y131.016 E66.67025
G0 F6000 X124.228 Y131.016
G1 F1200 X96.649 Y103.437 E67.96749
G0 F6000 X97.094 Y103.316
G1 F1200 X124.793 Y131.016 E69.27039
G0 F6000 X125.359 Y131.016
G1 F1200 X97.659 Y103.316 E70.57331
G0 F6000 X98.225 Y103.316
G1 F1200 X125.925 Y131.016 E71.87623
G0 F6000 X126.49 Y131.016
G1 F1200 X98.791 Y103.316 E73.17913
G0 F6000 X99.356 Y103.316
G1 F1200 X127.056 Y131.016 E74.48205
G0 F6000 X127.622 Y131.016
G1 F1200 X99.922 Y103.316 E75.78498
G0 F6000 X100.488 Y103.316
G1 F1200 X128.187 Y131.016 E77.08788
G0 F6000 X128.753 Y131.016
G1 F1200 X101.054 Y103.316 E78.39078
G0 F6000 X101.619 Y103.316
G1 F1200 X129.319 Y131.016 E79.6937
G0 F6000 X129.884 Y131.016
G1 F1200 X102.185 Y103.316 E80.9966
G0 F6000 X102.751 Y103.316
G1 F1200 X130.45 Y131.016 E82.2995
G0 F6000 X131.016 Y131.016
G1 F1200 X103.316 Y103.316 E83.60242
G0 F6000 X103.882 Y103.316
G1 F1200 X131.581 Y131.016 E84.90532
G0 F6000 X132.147 Y131.016
G1 F1200 X104.448 Y103.316 E86.20822
G0 F6000 X105.013 Y103.316
G1 F1200 X132.713 Y131.016 E87.51114
G0 F6000 X133.279 Y131.016
G1 F1200 X105.579 Y103.316 E88.81407
G0 F6000 X106.145 Y103.316
G1 F1200 X133.844 Y131.016 E90.11697
G0 F6000 X134.41 Y131.016
G1 F1200 X106.71 Y103.316 E91.41989
G0 F6000 X107.276 Y103.316
G1 F1200 X134.976 Y131.016 E92.72281
G0 F6000 X135.541 Y131.016
G1 F1200 X107.842 Y103.316 E94.02571
G0 F6000 X108.407 Y103.316
G1 F1200 X136.107 Y131.016 E95.32863
G0 F6000 X136.673 Y131.016
G1 F1200 X108.973 Y103.316 E96.63156
G0 F6000 X109.539 Y103.316
G1 F1200 X137.238 Y131.016 E97.93446
G0 F6000 X137.804 Y131.016
G1 F1200 X110.105 Y103.316 E99.23736
G0 F6000 X110.67 Y103.316
G1 F1200 X138.349 Y130.995 E100.53929
G0 F6000 X138.349 Y130.43
G1 F1200 X111.236 Y103.316 E101.81463
G0 F6000 X111.802 Y103.316
G1 F1200 X138.349 Y129.864 E103.06334
G0 F6000 X138.349 Y129.298
G1 F1200 X112.367 Y103.316 E104.28545
G0 F6000 X112.933 Y103.316
G1 F1200 X138.349 Y128.733 E105.48097
G0 F6000 X138.349 Y128.167
G1 F1200 X113.499 Y103.316 E106.64986
G0 F6000 X114.064 Y103.316
G1 F1200 X138.349 Y127.601 E107.79215
G0 F6000 X138.349 Y127.035
G1 F1200 X114.63 Y103.316 E108.90782
G0 F6000 X115.196 Y103.316
G1 F1200 X138.349 Y126.47 E109.99689
G0 F6000 X138.349 Y125.904
G1 F1200 X115.761 Y103.316 E111.05936
G0 F6000 X116.327 Y103.316
G1 F1200 X138.349 Y125.338 E112.09521
G0 F6000 X138.349 Y124.773
G1 F1200 X116.893 Y103.316 E113.10446
G0 F6000 X117.458 Y103.316
G1 F1200 X138.349 Y124.207 E114.08711
G0 F6000 X138.349 Y123.641
G1 F1200 X118.024 Y103.316 E115.04313
G0 F6000 X118.59 Y103.316
G1 F1200 X138.349 Y123.076 E115.97256
G0 F6000 X138.349 Y122.51
G1 F1200 X119.155 Y103.316 E116.87538
G0 F6000 X119.721 Y103.316
G1 F1200 X138.349 Y121.944 E117.75159
G0 F6000 X138.349 Y121.379
G1 F1200 X120.287 Y103.316 E118.60119
G0 F6000 X120.853 Y103.316
G1 F1200 X138.349 Y120.813 E119.42417
G0 F6000 X138.349 Y120.247
G1 F1200 X121.418 Y103.316 E120.22056
G0 F6000 X121.984 Y103.316
G1 F1200 X138.349 Y119.682 E120.99034
G0 F6000 X138.349 Y119.116
G1 F1200 X122.55 Y103.316 E121.7335
G0 F6000 X123.115 Y103.316
G1 F1200 X138.349 Y118.55 E122.45006
G0 F6000 X138.349 Y117.985
G1 F1200 X123.681 Y103.316 E123.14002
G0 F6000 X124.247 Y103.316
G1 F1200 X138.349 Y117.419 E123.80336
G0 F6000 X138.349 Y116.853
G1 F1200 X124.812 Y103.316 E124.4401
G0 F6000 X125.378 Y103.316
G1 F1200 X138.349 Y116.287 E125.05022
G0 F6000 X138.349 Y115.722
G1 F1200 X125.944 Y103.316 E125.63373
G0 F6000 X126.509 Y103.316
G1 F1200 X138.349 Y115.156 E126.19065
G0 F6000 X138.349 Y114.59
G1 F1200 X127.075 Y103.316 E126.72094
G0 F6000 X127.641 Y103.316
G1 F1200 X138.349 Y114.025 E127.22464
G0 F6000 X138.349 Y113.459
G1 F1200 X128.206 Y103.316 E127.70173
G0 F6000 X128.772 Y103.316
G1 F1200 X138.349 Y112.893 E128.15221
G0 F6000 X138.349 Y112.328
G1 F1200 X129.338 Y103.316 E128.57608
G0 F6000 X129.904 Y103.316
G1 F1200 X138.349 Y111.762 E128.97333
G0 F6000 X138.349 Y111.196
G1 F1200 X130.469 Y103.316 E129.34398
G0 F6000 X131.035 Y103.316
G1 F1200 X138.349 Y110.631 E129.68803
G0 F6000 X138.349 Y110.065
G1 F1200 X131.601 Y103.316 E130.00546
G0 F6000 X132.166 Y103.316
G1 F1200 X138.349 Y109.499 E130.29629
G0 F6000 X138.349 Y108.934
